src/external-link.svg

<svg fill="#000000" xmlns="http://www.w3.org/2000/svg"  viewBox="0 0 26 26" width="26px" height="26px"><path d="M 12.3125 0 C 10.425781 0.00390625 10.566406 0.507813 11.5625 1.5 L 14.78125 4.71875 L 9.25 10.25 C 8.105469 11.394531 8.105469 13.230469 9.25 14.375 L 11.6875 16.78125 C 12.832031 17.921875 14.667969 17.925781 15.8125 16.78125 L 21.34375 11.28125 L 24.5 14.4375 C 25.601563 15.539063 26 15.574219 26 13.6875 L 26 3.40625 C 26 -0.03125 26.035156 0 22.59375 0 Z M 4.875 5 C 2.183594 5 0 7.183594 0 9.875 L 0 21.125 C 0 23.816406 2.183594 26 4.875 26 L 16.125 26 C 18.816406 26 21 23.816406 21 21.125 L 21 14.75 L 18 17.75 L 18 21.125 C 18 22.160156 17.160156 23 16.125 23 L 4.875 23 C 3.839844 23 3 22.160156 3 21.125 L 3 9.875 C 3 8.839844 3.839844 8 4.875 8 L 8.3125 8 L 11.3125 5 Z"/></svg>

<?xml version="1.0" encoding="iso-8859-1"?>
<!-- Generator: Adobe Illustrator 18.1.1, SVG Export Plug-In . SVG Version: 6.00 Build 0)  -->
<svg version="1.1" id="Capa_1" xmlns="http://www.w3.org/2000/svg" xmlns:xlink="http://www.w3.org/1999/xlink" x="0px" y="0px"
	 viewBox="0 0 26 26" style="enable-background:new 0 0 26 26;" xml:space="preserve">
<g>
	<path style="fill:#030104;" d="M18,17.759v3.366C18,22.159,17.159,23,16.125,23H4.875C3.841,23,3,22.159,3,21.125V9.875
		C3,8.841,3.841,8,4.875,8h3.429l3.001-3h-6.43C2.182,5,0,7.182,0,9.875v11.25C0,23.818,2.182,26,4.875,26h11.25
		C18.818,26,21,23.818,21,21.125v-6.367L18,17.759z"/>
	<g>
		<path style="fill:#030104;" d="M22.581,0H12.322c-1.886,0.002-1.755,0.51-0.76,1.504l3.22,3.22l-5.52,5.519
			c-1.145,1.144-1.144,2.998,0,4.141l2.41,2.411c1.144,1.141,2.996,1.142,4.14-0.001l5.52-5.52l3.16,3.16
			c1.101,1.1,1.507,1.129,1.507-0.757L26,3.419C25.999-0.018,26.024-0.001,22.581,0z"/>
	</g>
</g>
<g>
</g>
<g>
</g>
<g>
</g>
<g>
</g>
<g>
</g>
<g>
</g>
<g>
</g>
<g>
</g>
<g>
</g>
<g>
</g>
<g>
</g>
<g>
</g>
<g>
</g>
<g>
</g>
<g>
</g>
</svg>
